dist/img/capability-img-2.svg

<svg width="49" height="51" viewBox="0 0 49 51" fill="none" xmlns="http://www.w3.org/2000/svg">
<path d="M21.0938 0.927086C20.8438 1.16667 20.8333 1.21875 20.8333 2.79167V4.39584L20.1354 4.625C19.7396 4.75 18.9688 5.07292 18.4063 5.33334L17.3854 5.80209L16.2604 4.69792C14.6458 3.10417 14.8542 3.05209 12.375 5.54167C9.88542 8.02083 9.9375 7.8125 11.5313 9.42708L12.6354 10.5521L12.1667 11.5729C11.9063 12.1354 11.5833 12.9063 11.4583 13.2917L11.2292 14H9.625C8.05208 14 8 14.0104 7.76042 14.2604L7.5 14.5104V17.3333V20.1563L7.76042 20.4063C8 20.6563 8.05208 20.6667 9.625 20.6667H11.2292L11.4583 21.3646C11.5833 21.7604 11.9063 22.5313 12.1667 23.0938L12.6354 24.1146L11.5313 25.2396C9.9375 26.8542 9.88542 26.6458 12.375 29.125C14.8542 31.6146 14.6458 31.5625 16.2604 29.9688L17.3854 28.8646L18.4063 29.3333C18.9688 29.5938 19.7396 29.9167 20.1354 30.0417L20.8333 30.2708V31.875C20.8333 33.4479 20.8438 33.5 21.0938 33.7396L21.3438 34H24.1667H26.9896L27.2396 33.7396C27.4896 33.5 27.5 33.4479 27.5 31.875V30.2708L28.2083 30.0417C28.5938 29.9167 29.3646 29.5938 29.9271 29.3333L30.9479 28.8646L32.0729 29.9688C33.6875 31.5625 33.4792 31.6146 35.9583 29.125C38.4479 26.6458 38.3958 26.8542 36.8021 25.2396L35.6979 24.1146L36.1667 23.0938C36.4271 22.5313 36.75 21.7604 36.875 21.3646L37.1042 20.6667H38.7083C40.2813 20.6667 40.3333 20.6563 40.5729 20.4063L40.8333 20.1563V17.3333V14.5104L40.5729 14.2604C40.3333 14.0104 40.2813 14 38.7083 14H37.1042L36.875 13.2917C36.75 12.9063 36.4271 12.1354 36.1667 11.5729L35.6979 10.5521L36.8021 9.42708C38.3958 7.8125 38.4479 8.02083 35.9583 5.54167C33.4792 3.05209 33.6875 3.10417 32.0729 4.69792L30.9479 5.80209L29.9271 5.33334C29.3646 5.07292 28.5938 4.75 28.2083 4.625L27.5 4.39584V2.79167C27.5 1.21875 27.4896 1.16667 27.2396 0.927086L26.9896 0.666668H24.1667H21.3438L21.0938 0.927086ZM25.8333 3.83334C25.8333 5.70834 25.8542 5.72917 27.2396 6.09375C27.8333 6.23959 28.7083 6.59375 29.6042 7.05209C30.6146 7.5625 31.1042 7.76042 31.2708 7.70833C31.4063 7.67708 31.9792 7.1875 32.5521 6.60417L33.5938 5.5625L34.7604 6.72917L35.9375 7.89583L34.8438 9.01042C34.1875 9.66667 33.75 10.1979 33.75 10.3229C33.75 10.4375 34.0729 11.1563 34.4583 11.9271C34.9167 12.8229 35.2604 13.6667 35.4063 14.2604C35.7708 15.6458 35.7917 15.6667 37.6667 15.6667H39.1667V17.3333V19H37.6667C35.8021 19 35.7708 19.0208 35.4271 20.3542C35.2917 20.8958 34.9167 21.8125 34.4583 22.7188C33.9375 23.7708 33.7396 24.2604 33.7813 24.4375C33.8229 24.5729 34.3125 25.1458 34.8958 25.7188L35.9375 26.7604L34.7708 27.9271L33.6042 29.1042L32.4896 28.0104C31.8333 27.3542 31.3021 26.9167 31.1771 26.9167C31.0625 26.9167 30.3438 27.2396 29.5729 27.625C28.6771 28.0833 27.8333 28.4271 27.2396 28.5729C25.8542 28.9375 25.8333 28.9583 25.8333 30.8333V32.3333H24.1667H22.5V30.8333C22.5 28.9792 22.4792 28.9375 21.1458 28.5938C20.6354 28.4583 19.6354 28.0521 18.7813 27.625C17.7292 27.1042 17.2292 26.9063 17.0625 26.9479C16.9271 26.9896 16.3542 27.4792 15.7813 28.0625L14.7396 29.1042L13.5729 27.9375L12.3958 26.7708L13.4896 25.6563C14.1458 25 14.5833 24.4688 14.5833 24.3438C14.5833 24.2292 14.2604 23.5104 13.875 22.7396C13.4167 21.8438 13.0729 21 12.9271 20.4063C12.5625 19.0208 12.5417 19 10.6667 19H9.16667V17.3333V15.6667H10.6667C12.5313 15.6667 12.5625 15.6458 12.9063 14.3125C13.0417 13.7708 13.4167 12.8542 13.875 11.9479C14.3958 10.8958 14.5938 10.4063 14.5521 10.2292C14.5104 10.0938 14.0208 9.52083 13.4375 8.94792L12.3958 7.90625L13.5625 6.73959L14.7292 5.5625L15.8438 6.65625C16.5 7.3125 17.0313 7.75 17.1563 7.75C17.2708 7.75 17.9896 7.42708 18.7604 7.04167C19.6563 6.58334 20.5 6.23959 21.0938 6.09375C22.4792 5.72917 22.5 5.70834 22.5 3.83334V2.33334H24.1667H25.8333V3.83334Z" fill="white"/>
<path d="M22.6041 7.44787C20.3437 7.8437 18.3853 8.9062 16.8645 10.552C15.6874 11.8125 14.927 13.1979 14.4687 14.9375C14.1562 16.0833 14.1249 18.4479 14.4062 19.5625C14.8958 21.5 15.7395 22.9895 17.1874 24.4166C18.5728 25.7916 20.0416 26.6145 21.9374 27.0937C23.052 27.375 25.4166 27.3437 26.5624 27.0312C28.5103 26.5104 29.7812 25.7812 31.1978 24.3645C32.6145 22.9479 33.3437 21.6875 33.8749 19.7291C34.2082 18.5 34.2082 16.2291 33.8749 14.9687C33.3853 13.0937 32.5624 11.6354 31.2082 10.2916C29.8749 8.95829 28.3957 8.10412 26.5728 7.63537C25.6458 7.39579 23.4791 7.29162 22.6041 7.44787ZM25.4478 9.11454C29.9166 9.80204 33.052 14.0312 32.4062 18.4791C31.5312 24.4166 24.9166 27.552 19.8333 24.427C15.4999 21.7604 14.5312 15.9479 17.7708 12.0104C19.5937 9.7812 22.552 8.66662 25.4478 9.11454Z" fill="white"/>
<path d="M23.5935 11.7604C23.3435 11.9999 23.3331 12.052 23.3331 13.5312C23.3331 14.8333 23.3122 15.0416 23.1664 15.0416C22.8851 15.0416 21.9268 16.0937 21.7914 16.5624C21.4997 17.5416 21.7081 18.3229 22.4476 19.052C23.5101 20.1145 24.8331 20.1145 25.9164 19.0312C26.2081 18.7395 26.4581 18.4166 26.4581 18.3333C26.4581 18.1874 26.7081 18.1666 28.3851 18.1666C30.3018 18.1666 30.3226 18.1666 30.5726 17.9062C30.9164 17.5729 30.9164 17.0937 30.5726 16.7604C30.3226 16.4999 30.3018 16.4999 28.3851 16.4999C26.7081 16.4999 26.4581 16.4791 26.4581 16.3333C26.4581 16.1249 25.3747 15.0416 25.1664 15.0416C25.0206 15.0416 24.9997 14.8333 24.9997 13.5312C24.9997 12.052 24.9893 11.9999 24.7393 11.7604C24.5831 11.5937 24.3643 11.4999 24.1664 11.4999C23.9685 11.4999 23.7497 11.5937 23.5935 11.7604ZM24.7393 16.7604C24.906 16.9166 24.9997 17.1354 24.9997 17.3333C24.9997 17.5312 24.906 17.7499 24.7393 17.9062C24.2289 18.427 23.3331 18.0624 23.3331 17.3333C23.3331 16.9062 23.7393 16.4999 24.1664 16.4999C24.3643 16.4999 24.5831 16.5937 24.7393 16.7604Z" fill="white"/>
<path d="M0.260417 35.9166L0 36.177V43.1666V50.1562L0.260417 50.4166L0.510417 50.6666L15.75 50.6458C30.5521 50.6145 31 50.6041 31.4583 50.4166C31.7188 50.302 35.2708 48.5 39.3646 46.4062C44.1875 43.927 46.9583 42.4583 47.25 42.1979C47.5 41.9791 47.8333 41.5416 47.9896 41.2083C48.2396 40.7083 48.2812 40.4791 48.2812 39.7812C48.2812 39.0208 48.2396 38.875 47.8542 38.052C47.3125 36.927 46.9167 36.4791 46.1146 36.0937C45.2708 35.6875 44.6667 35.6041 43.8958 35.802C43.5312 35.8958 40.8229 37.2083 37.375 38.9479L31.4583 41.927L31.5417 41.5833C31.6875 40.9062 31.6146 39.802 31.3854 39.302C31.0729 38.6145 30.4896 38.0104 29.8125 37.677L29.2188 37.3854L25.4792 37.3541L21.7292 37.3229L21.2292 36.8541C20.9479 36.5937 20.4062 36.2291 20.0208 36.052L19.3229 35.7187L9.91667 35.6875L0.520833 35.6562L0.260417 35.9166ZM9.16667 43.1666V49H5.41667H1.66667V43.1666V37.3333H5.41667H9.16667V43.1666ZM19.1042 37.4583C19.4062 37.5416 19.7292 37.7812 20.1979 38.2604L20.8646 38.9479L24.9062 39C28.7812 39.052 28.9583 39.0625 29.2292 39.2708C29.7708 39.677 29.9479 40.0104 29.9479 40.6562C29.9479 41.1562 29.8958 41.3229 29.6458 41.6458C29.1146 42.3437 29.1979 42.3333 23.75 42.3333H18.8438L18.5938 42.5937C18.4271 42.75 18.3333 42.9687 18.3333 43.1666C18.3333 43.3645 18.4271 43.5833 18.5938 43.7395L18.8438 44H24.9583H31.0729L37.5417 40.7291C41.0938 38.927 44.1562 37.427 44.3438 37.3854C44.8021 37.2916 45.4271 37.4895 45.75 37.8229C46.1042 38.1979 46.6667 39.3854 46.6667 39.7604C46.6667 40.177 46.4271 40.677 46.0833 40.9895C45.9167 41.1354 42.4062 42.9895 38.2812 45.1041L30.7812 48.9479L20.8125 48.9791L10.8333 49V43.1666V37.3333H14.75C17.4896 37.3333 18.8021 37.375 19.1042 37.4583Z" fill="white"/>
</svg>

<svg width="49" height="51" fill="none" xmlns="http://www.w3.org/2000/svg"><path d="M21.094.927c-.25.24-.26.292-.26 1.865v1.604l-.699.229c-.395.125-1.166.448-1.729.708l-1.02.47-1.126-1.105c-1.614-1.594-1.406-1.646-3.885.844-2.49 2.479-2.438 2.27-.844 3.885l1.104 1.125-.468 1.02c-.26.563-.584 1.334-.709 1.72L11.23 14H9.625c-1.573 0-1.625.01-1.865.26l-.26.25v5.646l.26.25c.24.25.292.26 1.865.26h1.604l.23.699c.124.395.447 1.166.708 1.729l.468 1.02-1.104 1.126c-1.594 1.614-1.646 1.406.844 3.885 2.48 2.49 2.27 2.438 3.885.844l1.125-1.104 1.021.468c.563.26 1.334.584 1.73.709l.697.229v1.604c0 1.573.01 1.625.26 1.865l.25.26h5.647l.25-.26c.25-.24.26-.292.26-1.865v-1.604l.708-.23c.386-.124 1.157-.447 1.72-.708l1.02-.468 1.125 1.104c1.614 1.593 1.406 1.646 3.885-.844 2.49-2.48 2.438-2.27.844-3.885l-1.104-1.125.469-1.021c.26-.563.583-1.334.708-1.73l.23-.697h1.603c1.573 0 1.625-.01 1.865-.26l.26-.25V14.51l-.26-.25c-.24-.25-.292-.26-1.865-.26h-1.604l-.229-.708c-.125-.386-.448-1.157-.708-1.72l-.47-1.02 1.105-1.125c1.594-1.614 1.646-1.406-.844-3.885-2.479-2.49-2.27-2.438-3.885-.844l-1.125 1.104-1.02-.469c-.563-.26-1.334-.583-1.72-.708l-.708-.23V2.793c0-1.573-.01-1.625-.26-1.865l-.25-.26h-5.646l-.25.26Zm4.74 2.906c0 1.875.02 1.896 1.406 2.26.593.147 1.468.5 2.364.96 1.01.51 1.5.707 1.667.655.135-.03.708-.52 1.281-1.104l1.042-1.042L34.76 6.73l1.178 1.167-1.094 1.114c-.657.657-1.094 1.188-1.094 1.313 0 .114.323.833.708 1.604.459.896.802 1.74.948 2.333.365 1.386.386 1.407 2.26 1.407h1.5V19h-1.5c-1.864 0-1.895.02-2.239 1.354-.135.542-.51 1.459-.969 2.365-.52 1.052-.718 1.541-.677 1.718.042.136.532.709 1.115 1.282l1.041 1.041-1.166 1.167-1.167 1.177-1.114-1.094c-.657-.656-1.188-1.093-1.313-1.093-.114 0-.833.323-1.604.708-.896.458-1.74.802-2.333.948-1.386.364-1.407.385-1.407 2.26v1.5H22.5v-1.5c0-1.854-.02-1.895-1.354-2.24-.51-.135-1.51-.54-2.365-.968-1.052-.52-1.552-.719-1.718-.677-.136.042-.709.531-1.282 1.114l-1.041 1.042-1.167-1.166-1.177-1.167 1.094-1.115c.656-.656 1.093-1.187 1.093-1.312 0-.115-.323-.834-.708-1.604-.458-.896-.802-1.74-.948-2.334-.364-1.385-.385-1.406-2.26-1.406h-1.5v-3.333h1.5c1.864 0 1.896-.021 2.24-1.354.135-.542.51-1.459.968-2.365.52-1.052.719-1.542.677-1.719-.042-.135-.531-.708-1.114-1.281l-1.042-1.042 1.166-1.166 1.167-1.178 1.115 1.094c.656.657 1.187 1.094 1.312 1.094.115 0 .834-.323 1.604-.708.896-.459 1.74-.802 2.334-.948 1.385-.365 1.406-.386 1.406-2.26v-1.5h3.333v1.5Z" fill="#fff"/><path d="M22.604 7.448c-2.26.396-4.219 1.458-5.74 3.104-1.177 1.26-1.937 2.646-2.395 4.386-.313 1.145-.344 3.51-.063 4.624.49 1.938 1.333 3.427 2.781 4.855 1.386 1.375 2.855 2.197 4.75 2.677 1.115.281 3.48.25 4.625-.063 1.948-.52 3.22-1.25 4.636-2.666 1.416-1.417 2.146-2.677 2.677-4.636.333-1.229.333-3.5 0-4.76-.49-1.875-1.313-3.334-2.667-4.677-1.333-1.334-2.812-2.188-4.635-2.657-.927-.24-3.094-.343-3.969-.187Zm2.844 1.667c4.469.687 7.604 4.916 6.958 9.364-.875 5.938-7.49 9.073-12.573 5.948a8.317 8.317 0 0 1-2.062-12.417c1.823-2.229 4.781-3.343 7.677-2.895Z" fill="#fff"/><path d="M23.593 11.76c-.25.24-.26.292-.26 1.771 0 1.302-.02 1.51-.167 1.51-.28 0-1.24 1.053-1.375 1.521-.291.98-.083 1.76.657 2.49 1.062 1.063 2.385 1.063 3.468-.02.292-.293.542-.615.542-.699 0-.146.25-.166 1.927-.166 1.917 0 1.938 0 2.188-.26.343-.334.343-.813 0-1.147-.25-.26-.271-.26-2.188-.26-1.677 0-1.927-.02-1.927-.167 0-.208-1.083-1.291-1.292-1.291-.145 0-.166-.209-.166-1.51 0-1.48-.01-1.532-.26-1.772a.812.812 0 0 0-.574-.26.812.812 0 0 0-.573.26Zm1.146 5c.167.157.26.375.26.573a.812.812 0 0 1-.26.573c-.51.521-1.406.156-1.406-.573 0-.427.406-.833.833-.833.198 0 .417.094.573.26ZM.26 35.917l-.26.26v13.98l.26.26.25.25 15.24-.021c14.802-.032 15.25-.042 15.708-.23.26-.114 3.813-1.916 7.907-4.01 4.822-2.479 7.593-3.948 7.885-4.208.25-.219.583-.656.74-.99.25-.5.291-.729.291-1.427 0-.76-.041-.906-.427-1.729-.541-1.125-.937-1.573-1.74-1.958-.843-.407-1.447-.49-2.218-.292-.365.094-3.073 1.406-6.521 3.146l-5.917 2.979.084-.344c.145-.677.073-1.781-.157-2.281a3.45 3.45 0 0 0-1.573-1.625l-.593-.292-3.74-.03-3.75-.032-.5-.469a5.544 5.544 0 0 0-1.208-.802l-.698-.333-9.406-.032-9.396-.03-.26.26Zm8.907 7.25V49h-7.5V37.333h7.5v5.834Zm9.937-5.709c.302.084.625.323 1.094.802l.667.688 4.041.052c3.875.052 4.052.063 4.323.27.542.407.719.74.719 1.386 0 .5-.052.667-.302.99-.531.698-.448.687-5.896.687h-4.906l-.25.26a.812.812 0 0 0-.26.574c0 .197.093.416.26.572l.25.261h12.229l6.469-3.27c3.552-1.803 6.614-3.303 6.802-3.345.458-.093 1.083.105 1.406.438.354.375.917 1.562.917 1.937 0 .417-.24.917-.584 1.23-.166.145-3.677 2-7.802 4.114l-7.5 3.844-9.968.031-9.98.021V37.333h3.917c2.74 0 4.052.042 4.354.125Z" fill="#fff"/></svg>
